X: 237
T:Jocul De-a Lungul
O:Romainia
F: http://www.youtube.com/watch?v=HmSef39ellY
F: http://www.youtube.com/watch?v=omFHfrrwADk
L:1/8
M:2/4
P:AABBB
Q:1/4=120 
K:F
P:A
FGAB | c2 =B2| c2 A2 | BABG| A2 ^G2| A2 F2| cBcA| B2 A2 | B2 G2|
AGAF | G2 F2 | G4    |FGAB | c2 =B2| c2 A2| BABG| A2 ^G2| A2 c2|
c=Bcd| c2 C2 | D2 E2 | F4  |F4     |
P:B
FGAB | c2 d2 |e2 f2  | B4- |B2 c2  |
c=Bcd| c2 C2 | D2 E2 |F4   | F4    |



